X: 28699
T: My Dad Paddy
R: jig
M: 6/8
K: Amixolydian
a|:a>Ag f2e|d>AB A>BA|G>EA E2A|A>cc c>BA|
d2g f>ef|d>fd g2a|A>BA g2f|1 e>fd d2a:|2 e>fd d>ed||
f>dd f>af|g>fe f>dA|G>EA E2D|C>B,A, A,2A,|
G,2B A>ce/c/|d2a g>fe|A>BA g2f|e>fd d>ed|
e>fd f>af|g>fe f>dA|G>EA E2D|A,>B,C D>EF|
G>AB A>ce|d>fa g>fe|A>BA g2f|e>fd d3||

